X: 802
T: Yuo beijing
L: 1/8
M: 2/4
K: A
z e c B [I:setbarnb 1]| 
e d c B | 
z e f e | 
c B F A | 
z e c e | 
B cB2 | 
A B A F | 
E4 | 
A GA2 | 
z Be2 | 
e2A2 | 
B FE2 | 
B ce2 | 
B ce2 | 
B c B c | 
B ce2 | 
B4 | 
z B B B | 
e fe2 | 
c B F A | 
B4 | 
B3F | 
E4 |]

@@@ Tune index: 9676
